X:1
T:Mountain View, 10.10.10.10
T:Mountain View, 10.10.10.10
T:William T. Rogers, 1871
T:Public Domain Courtesy of the Cyber Hymnal™
C:William T. Rogers, 1871
Z:Public Domain
Z:Courtesy of the Cyber Hymnal™
%%score 1 ( 2 3 )
L:1/8
Q:1/4=110
M:4/4
K:A
V:1 treble 
V:2 bass 
V:3 bass 
V:1
 [CE]2 | [EA]3 [FB] [EA]2 [DF]2 | [CE]4 z2 [EA]2 | [DG]4 [CA]4 | [EB]6 [DE]2 | %5
 [CA]3 [FB] [EA]2 [DF]2 | [CE]4 z2 [CA]2 | [CA]4 ([DB]2 [Ec]2) | [CA]4 z2 [Ec]2 | %9
 [Ee]3 [Ec] [CA]2 [EB]2 | [Ec]4 z2 [FA]2 | [FB]4 [Ec]4 | [EB]6 [EB]2 | [Ec]3 [EB] [CA]2 [DF]2 | %14
 [CE]4 z2 [CA]2 | [CA]4 ([DB]2 [Ec]2) | [CA]6 |] %17
V:2
 [A,,A,]2 | [A,,C]3 [A,,D] [A,,C]2 [A,,A,]2 | [A,,A,]4 z2 [C,A,]2 | [B,,E,]4 (E,2 A,2) | %4
 [E,G,]6 [E,G,]2 | [A,,A,]3 [A,,D] [A,,C]2 [A,,A,]2 | [A,,A,]4 z2 [A,,A,]2 | [F,A,]4 [E,G,]4 | %8
 [A,,A,]4 z2 [A,,A,]2 | [A,C]3 A, [F,A,]2 [E,G,]2 | A,4 z2 [F,A,]2 | [D,A,]4 [A,,A,]4 | %12
 [E,G,]6 [E,G,]2 | A,3 [E,G,] [F,A,]2 [D,A,]2 | [A,,A,]4 z2 [A,,A,]2 | [F,A,]4 [E,G,]4 | %16
 [A,,A,]6 |] %17
V:3
 x2 | x8 | x8 | x4 A,,4 | x8 | x8 | x8 | x8 | x8 | x3 A, x4 | A,4 x4 | x8 | x8 | A,3 x5 | x8 | x8 | %16
 x6 |] %17

